assets/img/x-icon.svg

<svg width="20" height="20" viewBox="0 0 20 20" fill="none" xmlns="http://www.w3.org/2000/svg">
<path fill-rule="evenodd" clip-rule="evenodd" d="M7.60229 13.1367C7.41029 13.1367 7.21829 13.0637 7.07229 12.9167C6.77929 12.6237 6.77929 12.1497 7.07229 11.8567L11.8643 7.0647C12.1573 6.7717 12.6313 6.7717 12.9243 7.0647C13.2173 7.3577 13.2173 7.8317 12.9243 8.1247L8.13229 12.9167C7.98629 13.0637 7.79429 13.1367 7.60229 13.1367Z" fill="#E74F2C"/>
<path fill-rule="evenodd" clip-rule="evenodd" d="M12.3963 13.1396C12.2043 13.1396 12.0123 13.0666 11.8663 12.9196L7.07034 8.1226C6.77734 7.8296 6.77734 7.3556 7.07034 7.0626C7.36434 6.7696 7.83834 6.7696 8.13034 7.0626L12.9263 11.8596C13.2193 12.1526 13.2193 12.6266 12.9263 12.9196C12.7803 13.0666 12.5873 13.1396 12.3963 13.1396Z" fill="#E74F2C"/>
<path fill-rule="evenodd" clip-rule="evenodd" d="M5.665 1.5C3.135 1.5 1.5 3.233 1.5 5.916V14.084C1.5 16.767 3.135 18.5 5.665 18.5H14.333C16.864 18.5 18.5 16.767 18.5 14.084V5.916C18.5 3.233 16.864 1.5 14.334 1.5H5.665ZM14.333 20H5.665C2.276 20 0 17.622 0 14.084V5.916C0 2.378 2.276 0 5.665 0H14.334C17.723 0 20 2.378 20 5.916V14.084C20 17.622 17.723 20 14.333 20Z" fill="#E74F2C"/>
</svg>

<svg xmlns="http://www.w3.org/2000/svg" width="20" height="20" fill="none"><path fill="#E74F2C" fill-rule="evenodd" d="M7.602 13.137a.749.749 0 0 1-.53-1.28l4.792-4.792a.749.749 0 1 1 1.06 1.06l-4.792 4.792a.74.74 0 0 1-.53.22" clip-rule="evenodd"/><path fill="#E74F2C" fill-rule="evenodd" d="M12.396 13.14a.74.74 0 0 1-.53-.22L7.07 8.123a.749.749 0 1 1 1.06-1.06l4.796 4.797a.749.749 0 0 1-.53 1.28" clip-rule="evenodd"/><path fill="#E74F2C" fill-rule="evenodd" d="M5.665 1.5C3.135 1.5 1.5 3.233 1.5 5.916v8.168c0 2.683 1.635 4.416 4.165 4.416h8.668c2.531 0 4.167-1.733 4.167-4.416V5.916c0-2.683-1.636-4.416-4.166-4.416zM14.333 20H5.665C2.276 20 0 17.622 0 14.084V5.916C0 2.378 2.276 0 5.665 0h8.669C17.723 0 20 2.378 20 5.916v8.168C20 17.622 17.723 20 14.333 20" clip-rule="evenodd"/></svg>
